X: 0
T: Es komt ein Schiff Geladen
Z: From CAtholick Gesangbuch, 1608
Z: Copyright © 2004 by Douglas D. Anderson
Z: Released To The Public Domain
L: 1/4
M: 3/4
Q: 1/4=130
V: P1 name="Staff"
%%MIDI program 1 19
K: F
[V: P1]  D | D2 D | E2 E | (F2 G) | A2 A | G2 G | D2 E | F2 F | A2 c | d2 d | (c3/ B/ A/ G/) | F2 G | A2 G | F E2 | D2|]
w: There comes a gal- ley, la-_ den Up to the high- est board; She bears a heav'n- ly bur-___ then, The Fa- ther's e- terne Word.

